src/assets/images/icons/rosette.svg

<svg width="35" height="35" viewBox="0 0 35 35" fill="none" xmlns="http://www.w3.org/2000/svg">
<path d="M17.369 0C24.1995 0 29.7573 5.28605 29.7573 11.7825C29.7573 18.2789 24.1995 23.565 17.369 23.565C10.5385 23.565 4.98069 18.2789 4.98069 11.7825C4.98069 5.28605 10.5385 0 17.369 0ZM17.369 16.067C19.8568 16.067 21.8738 14.1486 21.8738 11.7825C21.8738 9.41634 19.8568 7.49794 17.369 7.49794C14.8812 7.49794 12.8642 9.41634 12.8642 11.7825C12.8642 14.1486 14.8812 16.067 17.369 16.067Z" fill="#1F3D56"></path>
<path d="M28.8707 20.3699L34.0198 30.3957L26.8537 29.0321L22.7712 34.2089L18.5907 25.6484C22.7565 25.3185 26.4246 23.3262 28.8707 20.3699Z" fill="#1F3D56"></path>
<path d="M5.86692 20.3699C8.31305 23.3262 11.9811 25.3185 16.147 25.6484L11.9665 34.2089L7.88396 29.0321L0.717885 30.3957L5.86692 20.3699Z" fill="#1F3D56"></path>
</svg>

<svg width="35" height="35" fill="none" xmlns="http://www.w3.org/2000/svg"><path d="M17.369 0c6.83 0 12.388 5.286 12.388 11.783 0 6.496-5.558 11.782-12.388 11.782S4.981 18.279 4.981 11.782C4.98 5.287 10.539 0 17.369 0zm0 16.067c2.488 0 4.505-1.918 4.505-4.284 0-2.367-2.017-4.285-4.505-4.285s-4.505 1.918-4.505 4.285c0 2.366 2.017 4.284 4.505 4.284zM28.87 20.37l5.15 10.026-7.166-1.364-4.083 5.177-4.18-8.56c4.165-.33 7.834-2.323 10.28-5.28zM5.867 20.37c2.446 2.956 6.114 4.948 10.28 5.278l-4.18 8.56-4.083-5.176-7.166 1.364L5.867 20.37z" fill="#1F3D56"/></svg>
